svg/outline/lightning.svg

<svg width="24" height="24" viewBox="0 0 24 24" fill="none" xmlns="http://www.w3.org/2000/svg">
<path d="M18.4961 10.7088L9.8603 19.5885C9.6207 19.8349 9.22228 19.5503 9.37764 19.2437L12.4518 13.1779C12.553 12.9783 12.408 12.7423 12.1842 12.7423H5.71762C5.45129 12.7423 5.31702 12.4211 5.5041 12.2315L13.5132 4.11699C13.7455 3.88157 14.132 4.14034 14.0029 4.44487L11.706 9.86069C11.6215 10.06 11.7694 10.2805 11.9859 10.2778L18.2773 10.1997C18.5444 10.1964 18.6823 10.5174 18.4961 10.7088Z" stroke="black"/>
</svg>

<svg xmlns="http://www.w3.org/2000/svg" fill="none" viewBox="0 0 24 24" stroke="currentColor">
  <path d="M18.496 10.709l-8.636 8.88c-.24.246-.638-.039-.482-.345l3.074-6.066a.3.3 0 00-.268-.436H5.718a.3.3 0 01-.214-.51l8.01-8.115c.232-.235.618.023.489.328L11.706 9.86a.3.3 0 00.28.417l6.291-.078a.3.3 0 01.22.509z"/>
</svg>
